bootstrap/cloud-slash.svg

<svg viewBox="0 0 16 16" xmlns="http://www.w3.org/2000/svg"><path fill-rule="evenodd" d="M3.11 5.11l0-.001c-.08.19-.14.4-.17.61 -1.68.37-2.95 1.83-2.95 3.59 0 2.048 1.708 3.68 3.781 3.68h7.21l-1-1h-6.22c-1.55 0-2.79-1.22-2.79-2.69 0-1.37 1.064-2.513 2.46-2.67l.44-.05v-.45c0-.08 0-.16.01-.24l-.82-.82Zm2.55-1.45l-.73-.73v0c.9-.61 1.97-.94 3.06-.94 2.69 0 4.923 2 5.166 4.57 1.59.22 2.83 1.55 2.83 3.19v0c-.01 1.1-.58 2.12-1.52 2.71l-.74-.74c.74-.38 1.24-1.125 1.24-1.98 0-1.22-1.02-2.23-2.32-2.23h-.5v-.5c0-2.22-1.86-4.045-4.19-4.045 -.875 0-1.678.26-2.34.661Z"/><path d="M13.64 14.35l-12-12 .7-.71 12 12 -.71.7Z"/></svg>

<svg xmlns="http://www.w3.org/2000/svg" width="16" height="16" fill="currentColor" class="bi bi-cloud-slash" viewBox="0 0 16 16">
  <path fill-rule="evenodd" d="M3.112 5.112a3 3 0 0 0-.17.613C1.266 6.095 0 7.555 0 9.318 0 11.366 1.708 13 3.781 13H11l-1-1H3.781C2.231 12 1 10.785 1 9.318c0-1.365 1.064-2.513 2.46-2.666l.446-.05v-.447q0-.113.018-.231zm2.55-1.45-.725-.725A5.5 5.5 0 0 1 8 2c2.69 0 4.923 2 5.166 4.579C14.758 6.804 16 8.137 16 9.773a3.2 3.2 0 0 1-1.516 2.711l-.733-.733C14.498 11.378 15 10.626 15 9.773c0-1.216-1.02-2.228-2.313-2.228h-.5v-.5C12.188 4.825 10.328 3 8 3c-.875 0-1.678.26-2.339.661z"/>
  <path d="m13.646 14.354-12-12 .708-.708 12 12z"/>
</svg>
